X:13
T:Gaspe Reel
M:2/2
L:1/8
K:D
"D"f2 ef e2 d2|dBBd B2 A2|"G"g2 (3fgf) "Em"e2 d2|"A"cABc B2 A2|
"D"f2 ef e2 d2|dABd B2A2|"G"g2 (3fgf) "Em"e2 d2|1"A"cABc "D"d2 e2:|2"A"c
ABc "D"d2 f2||:
"A"e2 f2 g2 fe|"D"fefg a2 f2|"A"e2 ef gfed|"G"cABc "D"B2A2|"A"ecef gfeg|
"D"fefg a2 gf|
"A"ecef gfed|cABc "D"d2 f2:|
K:Amaj
|:e2 cA e2 cA|"G"Bcdf "A"e2 cA|e2 cA "E"BAFG|"A"A2 cd e2 cA|
e2 cA "G"Bcdf|"A"e2 cA e2 cA|"E"BAGB "A"A4:||
